X:21147 
T:NIGHT DANCE, The 
B:DMI.0256
Z:Nordberg/Black
N:aka "Strike the Young (or "Gay") Harp".
R:jig
%Q:1/4=160
M:6/8
L:1/8
K:D % transposed from C
dBB cAA|BAG FED|dBB cAA|dAF EFA|
def Bcd|ABG F2E|DDD D2F|AFD EFA:|
def fga|aba afd|def fga|bge ecA|
def a2a|b2g a2g|fed dfe|dAF EFA:|
dfe dfe|dAG FED|dfe dfe|dAF EFA|
def Bcd|ABG F2E|DDD D2F|AFD EFA:|\
"final"HD3z3|]

%%%

